svg/Pictogram/pictograms-aem-0069r-do_not_touch_hot_surface.svg

<?xml version="1.0" encoding="ISO-8859-1" standalone="yes"?>
<svg height="306.397" width="306.397">
  <metadata>
    <rdf:RDF xmlns:cc="http://web.resource.org/cc/" xmlns:dc="http://purl.org/dc/elements/1.1/" xmlns:rdf="http://www.w3.org/1999/02/22-rdf-syntax-ns#">
      <cc:Work rdf:about="">
        <dc:title></dc:title>
        <dc:description></dc:description>
        <dc:subject>
          <rdf:Bag>
            <rdf:li></rdf:li>
          </rdf:Bag>
        </dc:subject>
        <dc:publisher>
          <cc:Agent rdf:about="http://www.unece.org/trans/danger/publi/ghs/pictograms.html">
            <dc:title>Source: UNECE GHS of Classification and Labeling of Chemicals, Source: AEM Pictorial Database, Source: AEM Pictorial Database, Source: AEM Pictorial Database, Source: AEM Pictorial Database</dc:title>
          </cc:Agent>
        </dc:publisher>
        <dc:creator>
          <cc:Agent>
            <dc:title></dc:title>
          </cc:Agent>
        </dc:creator>
        <dc:rights>
          <cc:Agent>
            <dc:title></dc:title>
          </cc:Agent>
        </dc:rights>
        <dc:date></dc:date>
        <dc:format>image/svg+xml</dc:format>
        <dc:type rdf:resource="http://purl.org/dc/dcmitype/StillImage"/>
        <cc:license rdf:resource="http://en.wikipedia.org/wiki/Public_domain"/>
        <dc:language>en</dc:language>
      </cc:Work>
    </rdf:RDF>
  </metadata>
  <defs><marker id="ArrowEnd" markerHeight="3" markerUnits="strokeWidth" markerWidth="4" orient="auto" refX="0" refY="5" viewBox="0 0 10 10"><path d="M 0 0 L 10 5 L 0 10 z"/></marker><marker id="ArrowStart" markerHeight="3" markerUnits="strokeWidth" markerWidth="4" orient="auto" refX="10" refY="5" viewBox="0 0 10 10"><path d="M 10 0 L 0 5 L 10 10 z"/></marker> </defs>
  <g id="g2958" transform="matrix(1.3532768,0,0,1.3532781,-53.207834,-52.192858)">
    <path d="M 245.354 89.8934L 208.796 105.264C 201.347 108.057 194.823 107.592 187.374 105.725C 179.921 103.866 91.4446 71.7334 91.4446 71.7334C 91.4446 71.7334 85.3899 83.3744 95.6321 88.0344C 105.878 92.6904 110.538 94.5534 110.538 94.5534L 73.2845 96.4134C 73.2845 96.4134 73.7493 110.385 83.9915 110.385C 94.2376 110.385 128.698 109.921 128.698 109.921L 68.6243 123.889C 70.9524 133.206 76.0735 137.393 84.4563 135.999C 92.8431 134.6 131.487 125.753 134.749 124.823C 138.007 123.889 140.804 123.889 143.136 125.753C 145.46 127.616 166.882 139.256 166.882 139.256C 166.882 139.256 144.526 135.999 139.405 135.534C 134.284 135.065 122.643 139.256 123.108 150.432C 123.108 150.432 175.725 159.284 182.714 160.214C 189.702 161.143 202.276 161.143 209.729 156.487C 217.179 151.831 219.511 149.967 223.233 148.104C 226.956 146.245 245.116 136.464 245.116 136.464L 245.354 89.8934" style="stroke:none; fill-rule:evenodd; fill:#000000"/>
    <path d="M 69.7766 197.94C 71.386 199.631 70.7532 203.221 70.2376 204.3C 70.2376 204.3 67.1907 211.187 67.1907 211.187L 69.5892 212.226L 72.597 205.421C 73.5188 203.491 74.1868 198.784 71.6673 196.135L 69.7766 197.94" style="stroke:none; fill-rule:evenodd; fill:#000000"/>
    <path d="M 78.4134 196.889L 78.6087 197.327C 79.7493 199.897 79.4407 202.44 78.9876 204.593C 78.7298 205.823 77.261 209.808 76.7181 211.245L 79.1595 212.171C 79.3665 211.624 81.1946 206.784 81.5462 205.132C 82.054 202.721 82.4485 199.538 80.9993 196.264C 80.9993 196.26 80.7923 195.811 80.7923 195.811C 80.0696 194.21 79.4446 192.831 79.8118 190.518L 77.2298 190.108C 76.7415 193.194 77.6282 195.159 78.4134 196.889" style="stroke:none; fill-rule:evenodd; fill:#000000"/>
    <path d="M 88.7259 197.303C 89.8665 200.006 89.5345 202.62 89.1165 204.589C 88.8548 205.823 87.3899 209.808 86.847 211.245L 89.2884 212.171C 89.4954 211.624 91.3235 206.784 91.6751 205.132C 92.1321 202.967 92.5735 199.698 91.136 196.288C 89.8196 193.178 88.8313 189.506 90.4876 183.702L 87.9759 182.987C 86.0892 189.585 87.2962 193.924 88.7259 197.303" style="stroke:none; fill-rule:evenodd; fill:#000000"/>
    <path d="M 96.1165 190.378C 96.2688 193.335 97.1009 195.631 97.8079 197.303C 98.9485 200.003 98.6165 202.616 98.1985 204.589C 97.9368 205.823 96.4681 209.808 95.9251 211.245L 98.3665 212.171C 98.5735 211.624 100.406 206.784 100.757 205.132C 101.214 202.967 101.656 199.694 100.214 196.284C 99.5931 194.811 98.8587 192.792 98.7259 190.245L 96.1165 190.378" style="stroke:none; fill-rule:evenodd; fill:#000000"/>
    <path d="M 106.823 174.745C 107.229 176.338 107.393 180.506 106.44 182.549C 103.663 188.514 105.3 193.827 106.772 197.303C 107.917 200.006 107.581 202.62 107.163 204.589C 106.901 205.823 105.432 209.808 104.89 211.245L 107.335 212.171C 107.542 211.624 109.37 206.784 109.722 205.132C 110.179 202.967 110.62 199.698 109.179 196.288C 107.792 193.01 106.499 188.62 108.808 183.655C 110.093 180.901 109.85 176.046 109.354 174.1L 106.823 174.745" style="stroke:none; fill-rule:evenodd; fill:#000000"/>
    <path d="M 116.21 172.139C 116.932 173.772 117.421 179.846 116.784 181.378C 113.843 188.424 114.429 192.553 116.432 197.303C 117.577 200.006 117.245 202.62 116.827 204.589C 116.565 205.823 115.097 209.808 114.554 211.245L 116.995 212.171C 117.206 211.624 119.03 206.784 119.382 205.132C 119.843 202.967 120.284 199.698 118.843 196.288C 117.065 192.077 116.597 188.616 119.194 182.381C 120.182 180.01 119.522 173.163 118.597 171.077L 116.21 172.139" style="stroke:none; fill-rule:evenodd; fill:#000000"/>
    <path d="M 125.561 178.12C 125.608 179.917 125.448 180.979 125.284 181.374C 122.339 188.436 122.925 192.565 124.932 197.303C 126.077 200.006 125.745 202.62 125.323 204.589C 125.061 205.823 123.597 209.808 123.05 211.245L 125.495 212.171C 125.702 211.624 127.53 206.784 127.882 205.132C 128.343 202.967 128.784 199.702 127.343 196.288C 125.561 192.085 125.089 188.628 127.694 182.381C 128.061 181.499 128.225 180.042 128.175 178.057L 125.561 178.12" style="stroke:none; fill-rule:evenodd; fill:#000000"/>
    <path d="M 135.573 178.366C 135.62 180.155 135.456 181.217 135.292 181.62C 132.284 188.842 132.765 192.702 134.71 197.303C 135.854 199.999 135.518 202.616 135.1 204.589C 134.843 205.823 133.378 209.812 132.835 211.245L 135.276 212.167C 135.483 211.624 137.308 206.784 137.659 205.132C 138.116 202.964 138.561 199.686 137.116 196.284C 135.413 192.253 135.034 189.034 137.702 182.624C 138.073 181.733 138.237 180.28 138.186 178.299L 135.573 178.366" style="stroke:none; fill-rule:evenodd; fill:#000000"/>
    <path d="M 143.397 196.745C 144.268 199.608 144.421 203.76 144.011 205.691C 143.749 206.921 142.573 210.116 142.143 211.241L 144.589 212.171C 144.651 211.999 146.21 207.913 146.565 206.23C 147.05 203.952 146.932 199.385 145.897 195.987C 144.768 192.288 144.499 189.924 145.862 185.698L 143.378 184.889C 141.811 189.733 142.155 192.682 143.397 196.745" style="stroke:none; fill-rule:evenodd; fill:#000000"/>
    <path d="M 151.565 195.682L 151.897 196.749C 152.768 199.612 152.917 203.76 152.511 205.691C 152.249 206.921 151.073 210.116 150.643 211.241L 153.085 212.171C 153.151 211.999 154.71 207.913 155.065 206.233C 155.55 203.952 155.432 199.385 154.397 195.987C 154.397 195.983 154.058 194.897 154.058 194.897C 153.143 191.995 152.8 190.913 154.015 187.163L 151.53 186.358C 150.058 190.901 150.593 192.6 151.565 195.682" style="stroke:none; fill-rule:evenodd; fill:#000000"/>
    <path d="M 163.05 178.362C 163.089 180.163 162.929 181.225 162.765 181.62C 159.761 188.842 160.241 192.702 162.186 197.303C 163.331 200.006 162.995 202.62 162.577 204.589C 162.315 205.823 160.85 209.812 160.304 211.245L 162.749 212.171C 162.956 211.624 164.784 206.784 165.136 205.132C 165.593 202.967 166.034 199.698 164.593 196.288C 162.89 192.253 162.511 189.03 165.179 182.624C 165.542 181.749 165.706 180.292 165.663 178.303L 163.05 178.362" style="stroke:none; fill-rule:evenodd; fill:#000000"/>
    <path d="M 168.995 190.378C 169.147 193.327 169.975 195.628 170.682 197.299C 171.831 200.006 171.495 202.62 171.073 204.589C 170.815 205.823 169.347 209.808 168.8 211.245L 171.245 212.171C 171.452 211.624 173.28 206.784 173.632 205.132C 174.093 202.967 174.534 199.698 173.089 196.284C 172.468 194.807 171.737 192.788 171.604 190.245L 168.995 190.378" style="stroke:none; fill-rule:evenodd; fill:#000000"/>
    <path d="M 181.292 175.838C 181.448 178.635 181.14 180.893 180.366 182.549C 177.585 188.518 179.225 193.831 180.698 197.303C 181.843 200.006 181.507 202.62 181.089 204.589C 180.827 205.823 179.358 209.808 178.811 211.241L 181.257 212.171C 181.464 211.624 183.296 206.784 183.647 205.132C 184.104 202.967 184.546 199.698 183.104 196.288C 181.718 193.014 180.421 188.62 182.733 183.655C 183.69 181.604 184.085 178.924 183.901 175.694L 181.292 175.838" style="stroke:none; fill-rule:evenodd; fill:#000000"/>
    <path d="M 189.268 196.745C 190.14 199.6 190.292 203.749 189.878 205.691C 189.616 206.921 188.444 210.116 188.015 211.241L 190.456 212.171C 190.522 211.999 192.081 207.913 192.436 206.23C 192.921 203.944 192.804 199.374 191.768 195.983C 190.64 192.28 190.366 189.913 191.737 185.698L 189.253 184.889C 187.682 189.717 188.026 192.671 189.268 196.745" style="stroke:none; fill-rule:evenodd; fill:#000000"/>
    <path d="M 198.581 196.745C 199.456 199.608 199.608 203.756 199.198 205.691C 198.936 206.921 197.765 210.116 197.335 211.241L 199.776 212.171C 199.843 211.999 201.397 207.913 201.757 206.23C 202.237 203.948 202.12 199.381 201.081 195.983C 199.956 192.28 199.682 189.917 201.054 185.698L 198.565 184.889C 196.999 189.717 197.343 192.671 198.581 196.745" style="stroke:none; fill-rule:evenodd; fill:#000000"/>
    <path d="M 208.175 197.303C 209.319 199.999 208.983 202.612 208.565 204.589C 208.304 205.823 206.839 209.812 206.3 211.245L 208.741 212.167C 208.948 211.624 210.772 206.784 211.124 205.132C 211.581 202.964 212.026 199.686 210.581 196.284C 209.815 194.471 208.979 192.077 209.319 189.635L 206.729 189.28C 206.304 192.35 207.276 195.182 208.175 197.303" style="stroke:none; fill-rule:evenodd; fill:#000000"/>
    <path d="M 215.374 195.006C 215.651 196.296 216.065 197.569 216.675 199.014C 217.819 201.714 217.483 204.327 217.065 206.304C 216.808 207.511 215.694 210.241 215.284 211.191L 217.686 212.222C 217.847 211.847 219.265 208.523 219.624 206.847C 220.081 204.679 220.526 201.401 219.081 197.995C 218.538 196.71 218.175 195.581 217.929 194.456L 215.374 195.006" style="stroke:none; fill-rule:evenodd; fill:#000000"/>
    <path d="M 227.194 206.3C 226.936 207.511 225.819 210.241 225.413 211.191L 227.811 212.222C 227.975 211.847 229.393 208.523 229.749 206.847C 230.011 205.624 230.147 204.581 230.186 203.565L 227.573 203.471C 227.542 204.331 227.421 205.23 227.194 206.3" style="stroke:none; fill-rule:evenodd; fill:#000000"/>
    <path d="M 60.7102 233.792L 234.878 233.792L 234.878 214.233L 60.7102 214.233L 60.7102 233.792z" style="stroke:none; fill-rule:evenodd; fill:#000000"/>
    <path d="M 97.2962 182.171L 107.194 192.073L 232.475 66.7994L 222.573 56.8974L 97.2962 182.171" style="stroke:none; fill-rule:evenodd; fill:#d90000"/>
    <path d="M 97.2962 66.7964L 222.573 192.073L 232.475 182.171L 107.198 56.8974L 97.2962 66.7964" style="stroke:none; fill-rule:evenodd; fill:#d90000"/>
    <path d="M 29.6204 267.776L 2.62042 267.776" style="stroke:#000000; stroke-width:0.5; fill:none"/>
    <path d="M 38.6204 276.776L 38.6204 303.776" style="stroke:#000000; stroke-width:0.5; fill:none"/>
    <path d="M 29.6204 38.6204L 2.62042 38.6204" style="stroke:#000000; stroke-width:0.5; fill:none"/>
    <path d="M 38.6204 29.6204L 38.6204 2.62042" style="stroke:#000000; stroke-width:0.5; fill:none"/>
    <path d="M 276.776 38.6204L 303.776 38.6204" style="stroke:#000000; stroke-width:0.5; fill:none"/>
    <path d="M 267.776 29.6204L 267.776 2.62042" style="stroke:#000000; stroke-width:0.5; fill:none"/>
    <path d="M 276.776 267.776L 303.776 267.776" style="stroke:#000000; stroke-width:0.5; fill:none"/>
    <path d="M 267.776 276.776L 267.776 303.776" style="stroke:#000000; stroke-width:0.5; fill:none"/>
  </g>
</svg>

<svg viewBox="0 0 306.4 306.4"><g transform="matrix(1.35328 0 0 1.35328-53.21-52.19)" fill-rule="evenodd"><path d="m245.35 89.89l-36.558 15.371c-7.449 2.793-13.973 2.328-21.422.461-7.453-1.859-95.93-33.992-95.93-33.992 0 0-6.05 11.641 4.188 16.301 10.246 4.656 14.906 6.519 14.906 6.519l-37.25 1.86c0 0 .465 13.972 10.707 13.972 10.246 0 44.707-.464 44.707-.464l-60.07 13.968c2.328 9.317 7.449 13.504 15.832 12.11 8.387-1.399 47.03-10.246 50.29-11.176 3.258-.934 6.06-.934 8.387.93 2.324 1.863 23.746 13.503 23.746 13.503 0 0-22.356-3.257-27.477-3.722-5.121-.469-16.762 3.722-16.297 14.898 0 0 52.617 8.852 59.61 9.782 6.988.929 19.562.929 27.02-3.727 7.45-4.656 9.782-6.52 13.504-8.383 3.723-1.859 21.883-11.64 21.883-11.64l.238-46.571"/><path d="m69.777 197.94c1.609 1.691.977 5.281.461 6.36 0 0-3.047 6.887-3.047 6.887l2.398 1.039 3.01-6.805c.922-1.93 1.59-6.637-.93-9.286l-1.891 1.805"/><path d="m78.41 196.89l.195.438c1.141 2.57.832 5.113.379 7.266-.258 1.23-1.727 5.215-2.269 6.652l2.441.926c.207-.547 2.035-5.387 2.387-7.04.508-2.411.902-5.594-.547-8.868 0-.004-.207-.453-.207-.453-.723-1.601-1.348-2.98-.98-5.293l-2.582-.41c-.488 3.086.398 5.05 1.184 6.781"/><path d="m88.73 197.3c1.141 2.703.809 5.317.391 7.286-.262 1.234-1.727 5.219-2.27 6.656l2.441.926c.207-.547 2.035-5.387 2.387-7.04.457-2.165.898-5.434-.539-8.844-1.316-3.11-2.305-6.782-.648-12.586l-2.512-.715c-1.887 6.598-.68 10.937.75 14.316"/><path d="m96.12 190.38c.152 2.957.984 5.253 1.691 6.925 1.141 2.7.809 5.313.391 7.286-.262 1.234-1.73 5.219-2.273 6.656l2.441.926c.207-.547 2.04-5.387 2.391-7.04.457-2.165.899-5.438-.543-8.848-.621-1.473-1.355-3.492-1.488-6.04l-2.609.133"/><path d="m106.82 174.75c.406 1.593.57 5.761-.383 7.804-2.777 5.965-1.14 11.278.332 14.754 1.145 2.703.809 5.317.391 7.286-.262 1.234-1.731 5.219-2.273 6.656l2.445.926c.207-.547 2.035-5.387 2.387-7.04.457-2.165.898-5.434-.543-8.844-1.387-3.278-2.68-7.668-.371-12.633 1.285-2.754 1.042-7.609.546-9.555l-2.531.645"/><path d="m116.21 172.14c.722 1.633 1.211 7.707.574 9.239-2.941 7.05-2.355 11.175-.352 15.925 1.145 2.703.813 5.317.395 7.286-.262 1.234-1.73 5.219-2.273 6.656l2.441.926c.211-.547 2.035-5.387 2.387-7.04.461-2.165.902-5.434-.539-8.844-1.778-4.211-2.246-7.672.351-13.907.988-2.371.328-9.218-.597-11.304l-2.387 1.062"/><path d="m125.56 178.12c.047 1.797-.113 2.859-.277 3.254-2.945 7.06-2.359 11.191-.352 15.929 1.145 2.703.813 5.317.391 7.286-.262 1.234-1.726 5.219-2.273 6.656l2.445.926c.207-.547 2.035-5.387 2.387-7.04.461-2.165.902-5.43-.539-8.844-1.782-4.203-2.254-7.66.351-13.907.367-.882.531-2.339.481-4.324l-2.614.063"/><path d="m135.57 178.37c.047 1.789-.117 2.851-.281 3.254-3.01 7.222-2.527 11.08-.582 15.683 1.144 2.696.808 5.313.39 7.286-.257 1.234-1.722 5.223-2.265 6.656l2.441.922c.207-.543 2.032-5.383 2.383-7.03.457-2.168.902-5.446-.543-8.848-1.703-4.03-2.082-7.25.586-13.66.371-.891.535-2.344.484-4.325l-2.613.067"/><path d="m143.4 196.75c.871 2.863 1.024 7.01.614 8.946-.262 1.23-1.438 4.425-1.868 5.55l2.446.93c.062-.172 1.621-4.258 1.976-5.941.485-2.278.367-6.845-.668-10.243-1.129-3.699-1.398-6.06-.035-10.289l-2.484-.809c-1.567 4.844-1.223 7.793.019 11.856"/><path d="m151.56 195.68l.332 1.067c.871 2.863 1.02 7.01.614 8.942-.262 1.23-1.438 4.425-1.868 5.55l2.442.93c.066-.172 1.625-4.258 1.98-5.938.485-2.281.367-6.848-.668-10.246 0-.004-.339-1.09-.339-1.09-.915-2.902-1.258-3.984-.043-7.734l-2.485-.805c-1.472 4.543-.937 6.242.035 9.324"/><path d="m163.05 178.36c.039 1.801-.121 2.863-.285 3.258-3 7.222-2.524 11.08-.579 15.683 1.145 2.703.809 5.317.391 7.286-.262 1.234-1.727 5.223-2.273 6.656l2.445.926c.207-.547 2.035-5.387 2.387-7.04.457-2.165.898-5.434-.543-8.844-1.703-4.04-2.082-7.258.586-13.664.363-.875.527-2.332.484-4.321l-2.613.059"/><path d="m169 190.38c.152 2.949.98 5.25 1.687 6.921 1.149 2.707.813 5.321.391 7.29-.258 1.234-1.726 5.219-2.273 6.656l2.445.926c.207-.547 2.035-5.387 2.387-7.04.461-2.165.902-5.434-.543-8.848-.621-1.477-1.352-3.496-1.485-6.04l-2.609.133"/><path d="m181.29 175.84c.156 2.797-.152 5.06-.926 6.711-2.781 5.969-1.141 11.282.332 14.754 1.145 2.703.809 5.317.391 7.286-.262 1.234-1.731 5.219-2.278 6.652l2.446.93c.207-.547 2.039-5.387 2.39-7.04.457-2.165.899-5.434-.543-8.844-1.386-3.274-2.683-7.668-.371-12.633.957-2.051 1.352-4.731 1.168-7.961l-2.609.144"/><path d="m189.27 196.75c.872 2.855 1.024 7 .61 8.946-.262 1.23-1.434 4.425-1.863 5.55l2.441.93c.066-.172 1.625-4.258 1.98-5.941.485-2.286.368-6.856-.668-10.247-1.128-3.703-1.402-6.07-.031-10.285l-2.484-.809c-1.571 4.828-1.227 7.782.015 11.856"/><path d="m198.58 196.75c.875 2.863 1.027 7.01.617 8.946-.262 1.23-1.433 4.425-1.863 5.55l2.441.93c.067-.172 1.621-4.258 1.981-5.941.48-2.282.363-6.849-.676-10.247-1.125-3.703-1.399-6.07-.027-10.285l-2.489-.809c-1.566 4.828-1.222 7.782.016 11.856"/><path d="m208.18 197.3c1.144 2.696.808 5.309.39 7.286-.261 1.234-1.726 5.223-2.265 6.656l2.441.922c.207-.543 2.031-5.383 2.383-7.03.457-2.168.902-5.446-.543-8.848-.766-1.813-1.602-4.207-1.262-6.649l-2.59-.355c-.425 3.07.547 5.902 1.446 8.02"/><path d="m215.37 195.01c.277 1.29.691 2.563 1.301 4.01 1.144 2.7.808 5.313.39 7.29-.257 1.207-1.371 3.937-1.781 4.887l2.402 1.031c.161-.375 1.579-3.699 1.938-5.375.457-2.168.902-5.446-.543-8.852-.543-1.285-.906-2.414-1.152-3.539l-2.555.55"/><path d="m227.19 206.3c-.258 1.211-1.375 3.941-1.781 4.891l2.398 1.031c.164-.375 1.582-3.699 1.938-5.375.262-1.223.398-2.266.437-3.282l-2.613-.094c-.031.86-.152 1.759-.379 2.829"/><path d="m60.71 233.79h174.17v-19.559h-174.17v19.559"/><g fill="#d90000"><path d="m97.3 182.17l9.898 9.902 125.28-125.27-9.902-9.902-125.28 125.27"/><path d="m97.3 66.796l125.28 125.28 9.902-9.902-125.28-125.27-9.902 9.899"/></g></g></svg>
